{
  "type": "map",
  "version": "1.10",
  "tiledversion": "1.10.2",
  "orientation": "orthogonal",
  "renderorder": "right-down",
  "width": 40,
  "height": 30,
  "tilewidth": 48,
  "tileheight": 48,
  "infinite": false,
  "layers": [
    {
      "id": 1,
      "name": "Art",
      "type": "imagelayer",
      "image": "map.png",
      "imagewidth": 1920,
      "imageheight": 1440,
      "opacity": 1,
      "visible": true,
      "offsetx": 0,
      "offsety": 0
    },
    {
      "id": 2,
      "name": "Collision",
      "type": "objectgroup",
      "opacity": 1,
      "visible": true,
      "objects": [
        {
          "id": 201,
          "name": "example_wall",
          "type": "collision",
          "x": 864.0,
          "y": 864.0,
          "width": 192,
          "height": 48,
          "rotation": 0,
          "visible": true,
          "properties": [
            {
              "name": "note",
              "type": "string",
              "value": "Delete or resize; any rect here blocks movement."
            }
          ]
        }
      ]
    },
    {
      "id": 3,
      "name": "Triggers",
      "type": "objectgroup",
      "opacity": 1,
      "visible": true,
      "objects": [
        {
          "id": 301,
          "name": "exit_to_next",
          "type": "trigger_exit",
          "x": 1824,
          "y": 672.0,
          "width": 96,
          "height": 96,
          "rotation": 0,
          "visible": true,
          "properties": [
            {
              "name": "toAreaId",
              "type": "string",
              "value": "REPLACE_ME"
            },
            {
              "name": "toSpawn",
              "type": "string",
              "value": "pc_spawn"
            },
            {
              "name": "note",
              "type": "string",
              "value": "On enter: exit to another areaId."
            }
          ]
        },
        {
          "id": 302,
          "name": "ember_of_the_veil",
          "type": "trigger_ember",
          "x": 96,
          "y": 1296,
          "width": 48,
          "height": 48,
          "rotation": 0,
          "visible": true,
          "properties": [
            {
              "name": "kind",
              "type": "string",
              "value": "savepoint"
            },
            {
              "name": "note",
              "type": "string",
              "value": "Place near area start; keep frustration low."
            }
          ]
        },
        {
          "id": 303,
          "name": "encounter_zone_1",
          "type": "trigger_encounter",
          "x": 864.0,
          "y": 624.0,
          "width": 192,
          "height": 192,
          "rotation": 0,
          "visible": true,
          "properties": [
            {
              "name": "encounterId",
              "type": "string",
              "value": "REPLACE_ME"
            },
            {
              "name": "once",
              "type": "bool",
              "value": true
            },
            {
              "name": "note",
              "type": "string",
              "value": "Generic encounter region; size as needed."
            }
          ]
        }
      ]
    },
    {
      "id": 4,
      "name": "Spawns",
      "type": "objectgroup",
      "opacity": 1,
      "visible": true,
      "objects": [
        {
          "id": 401,
          "name": "pc_spawn",
          "type": "spawn_pc",
          "x": 96,
          "y": 96,
          "width": 48,
          "height": 48,
          "rotation": 0,
          "visible": true,
          "properties": [
            {
              "name": "facing",
              "type": "string",
              "value": "S"
            },
            {
              "name": "note",
              "type": "string",
              "value": "Move this to where the party begins."
            }
          ]
        },
        {
          "id": 402,
          "name": "enemy_spawn_1",
          "type": "spawn_enemy",
          "x": 1776,
          "y": 96,
          "width": 48,
          "height": 48,
          "rotation": 0,
          "visible": true,
          "properties": [
            {
              "name": "group",
              "type": "string",
              "value": "A"
            },
            {
              "name": "archetype",
              "type": "string",
              "value": "melee"
            },
            {
              "name": "note",
              "type": "string",
              "value": "Duplicate for additional enemies."
            }
          ]
        },
        {
          "id": 403,
          "name": "enemy_spawn_2",
          "type": "spawn_enemy",
          "x": 1776,
          "y": 1296,
          "width": 48,
          "height": 48,
          "rotation": 0,
          "visible": true,
          "properties": [
            {
              "name": "group",
              "type": "string",
              "value": "A"
            },
            {
              "name": "archetype",
              "type": "string",
              "value": "ranged"
            }
          ]
        }
      ]
    },
    {
      "id": 5,
      "name": "Objects",
      "type": "objectgroup",
      "opacity": 1,
      "visible": true,
      "objects": [
        {
          "id": 501,
          "name": "door_a",
          "type": "object_door",
          "x": 960.0,
          "y": 96,
          "width": 48,
          "height": 96,
          "rotation": 0,
          "visible": true,
          "properties": [
            {
              "name": "locked",
              "type": "bool",
              "value": false
            },
            {
              "name": "keyId",
              "type": "string",
              "value": ""
            }
          ]
        },
        {
          "id": 502,
          "name": "chest_a",
          "type": "object_chest",
          "x": 192,
          "y": 192,
          "width": 48,
          "height": 48,
          "rotation": 0,
          "visible": true,
          "properties": [
            {
              "name": "lootTable",
              "type": "string",
              "value": "REPLACE_ME"
            },
            {
              "name": "once",
              "type": "bool",
              "value": true
            }
          ]
        },
        {
          "id": 503,
          "name": "npc_a",
          "type": "object_npc",
          "x": 288,
          "y": 288,
          "width": 48,
          "height": 48,
          "rotation": 0,
          "visible": true,
          "properties": [
            {
              "name": "dialogueId",
              "type": "string",
              "value": "REPLACE_ME"
            },
            {
              "name": "note",
              "type": "string",
              "value": "Marker only; actual NPC spawn is engine-driven."
            }
          ]
        }
      ]
    }
  ]
}